X:2
T:Cadaneasca
R:cadaneasca
Z:id:hn-cadaneasca-2
M:2+2+2+3/16
L:1/16
Q:1/8=220
K:Aphr ^c
cedc BA ccA | cedc BA eeA | cedc BA ccA | cedc BG A3 :|
|: ABcd e2 fed | cedc BA eeA | ABcd e2 fed | cedc BG A3 :|
|: cddd dd fed | cedc BA eeA | cddd dd fed | cedc BG A3 :|

